images/timeline/micronaut-55px.svg

<svg width="20pt" height="20pt" viewBox="0 0 20 20" xmlns="http://www.w3.org/2000/svg"><path d="M0 0h55v55h-55v-55z"/><path fill="#e9e9e9" d="M16.99 4.95c6.59-5.53 17.54-4.62 23.04 2.05 1.31 1.98 3.72 2.31 5.65 3.38 1.86 1.69 2.27 4.81.82 6.88-1.01.68-2.09 1.23-3.14 1.84-.44-4.5-1.58-9.24-5.05-12.41-5.47-5.73-15.39-6-21.14-.54-3.83 3.17-5.17 8.17-5.61 12.92-1.37-.93-3.52-1.28-3.81-3.22-.81-2.68.69-5.89 3.56-6.42 2.52-.58 3.79-2.96 5.68-4.48z"/><path fill="#e9e9e9" d="M17.29 7.14c5.38-5.48 15.08-5.44 20.42.07 3.4 3.14 4.49 7.88 4.47 12.35 2.86.06 6.19-.37 8.46 1.78 2.78 2.26 2.76 6.98-.07 9.19-2.33 2.1-5.69 1.63-8.58 1.78 0 5.53.21 11.07-.09 16.58-.8 5.19-7.7 5.87-11.51 3.77-3.01-1.74-2.28-5.57-2.8-8.45-.57 3.08-.23 7.2-3.62 8.77-3.26 1.18-7.91 1.29-10.12-1.88-1.26-1.74-.94-4.01-1.03-6.02.06-4.26-.03-8.51.06-12.76-3.06-.13-6.74.31-9.01-2.23-2.39-2.34-2.19-6.64.41-8.74 2.25-2.17 5.6-1.7 8.46-1.81-.03-4.5 1.09-9.28 4.55-12.4z"/><path d="M20.33 11.11c4.42-.86 9.07-.54 13.54-.24 5.18 1.06 5.72 9.14.79 10.96-4.4.93-9.06.54-13.53.28-5.29-1-5.87-9.23-.8-11z"/><path fill="#e9e9e9" d="M22.17 15.26c1.61-.6 2.31 2.17.69 2.48-1.61.58-2.33-2.18-.69-2.48z"/><path fill="#e9e9e9" d="M32.08 15.25c1.63-.56 2.37 2.17.69 2.48-1.6.62-2.26-2.17-.69-2.48z"/></svg>

<?xml version="1.0" encoding="UTF-8" ?>
<!DOCTYPE svg PUBLIC "-//W3C//DTD SVG 1.1//EN" "http://www.w3.org/Graphics/SVG/1.1/DTD/svg11.dtd">
<svg width="20pt" height="20pt" viewBox="0 0 20 20" version="1.1" xmlns="http://www.w3.org/2000/svg">
<path fill="#000000" d=" M 0.00 0.00 L 55.00 0.00 L 55.00 55.00 L 0.00 55.00 L 0.00 0.00 Z" />
<path fill="#e9e9e9" d=" M 16.99 4.95 C 23.58 -0.58 34.53 0.33 40.03 7.00 C 41.34 8.98 43.75 9.31 45.68 10.38 C 47.54 12.07 47.95 15.19 46.50 17.26 C 45.49 17.94 44.41 18.49 43.36 19.10 C 42.92 14.60 41.78 9.86 38.31 6.69 C 32.84 0.96 22.92 0.69 17.17 6.15 C 13.34 9.32 12.00 14.32 11.56 19.07 C 10.19 18.14 8.04 17.79 7.75 15.85 C 6.94 13.17 8.44 9.96 11.31 9.43 C 13.83 8.85 15.10 6.47 16.99 4.95 Z" />
<path fill="#e9e9e9" d=" M 17.29 7.14 C 22.67 1.66 32.37 1.70 37.71 7.21 C 41.11 10.35 42.20 15.09 42.18 19.56 C 45.04 19.62 48.37 19.19 50.64 21.34 C 53.42 23.60 53.40 28.32 50.57 30.53 C 48.24 32.63 44.88 32.16 41.99 32.31 C 41.99 37.84 42.20 43.38 41.90 48.89 C 41.10 54.08 34.20 54.76 30.39 52.66 C 27.38 50.92 28.11 47.09 27.59 44.21 C 27.02 47.29 27.36 51.41 23.97 52.98 C 20.71 54.16 16.06 54.27 13.85 51.10 C 12.59 49.36 12.91 47.09 12.82 45.08 C 12.88 40.82 12.79 36.57 12.88 32.32 C 9.82 32.19 6.14 32.63 3.87 30.09 C 1.48 27.75 1.68 23.45 4.28 21.35 C 6.53 19.18 9.88 19.65 12.74 19.54 C 12.71 15.04 13.83 10.26 17.29 7.14 Z" />
<path fill="#000000" d=" M 20.33 11.11 C 24.75 10.25 29.40 10.57 33.87 10.87 C 39.05 11.93 39.59 20.01 34.66 21.83 C 30.26 22.76 25.60 22.37 21.13 22.11 C 15.84 21.11 15.26 12.88 20.33 11.11 Z" />
<path fill="#e9e9e9" d=" M 22.17 15.26 C 23.78 14.66 24.48 17.43 22.86 17.74 C 21.25 18.32 20.53 15.56 22.17 15.26 Z" />
<path fill="#e9e9e9" d=" M 32.08 15.25 C 33.71 14.69 34.45 17.42 32.77 17.73 C 31.17 18.35 30.51 15.56 32.08 15.25 Z" />
</svg>
